!!!!SEGMENT: pl-wn--mus-iii-129-090--002_zelenski-wladyslaw--dwie-piosnki-op-14-posylka.krn
!!!cenid: 18xx:3678
!!!COM: Żeleński, Władysław
!!!COM-rismID: pe41024455
!!!CDT: 1837/07/06-1921/01/23
!!!CNT: Polish
!!!GTL: Dwie piosnki op. 14
!!!OTL: Posyłka
!!!OMV: 002
!!!PDT:
!!!AGN:
!!!SMS-siglum: PL-Wn
!!!SMS-shelfmark: Mus.III.129.090
!!!SMS-shelfwork: 001-002 G
!!!SMS-variant:
!!!SMS-altvar:
!!!NIFC-rismSourceID:
!!!NIFC-rismChildID:
!!!NIFC-islandoraID: none
!!!URL-pdf-islandora:
!!!URL-scan: https://polona2.pl/item/dwie-piosnki-dzielo-14,MTA5NTkyMzI5/0 @EN{Scan on Polona} @PL{Skany w portalu Polona}
!!!IIIF: https://polona2.pl/iiif/item/MTA5NTkyMzI5/manifest.json
!!!ONB-nifc:
!!!AIN: 2 empty
!!!key: d
!!!OMD: Andante.
**kern	**kern	**dynam	**kern	**text	**dynam
*part2	*part2	*part2	*part1	*part1	*part1
*staff3	*staff2	*	*staff1	*staff1	*
*Iempty	*Iforte	*	*Iempty	*	*
*	*I"Fortepian.	*	*I"Śpiew.	*	*
*	*I'	*	*I'	*	*
*clefF4	*clefG2	*	*clefG2	*	*
*k[b-]	*k[b-]	*	*k[b-]	*	*
*d:	*d:	*	*d:	*	*
*M2/2	*M2/2	*	*M2/2	*	*
*met(c|)	*met(c|)	*	*met(c|)	*	*
=1	=1	=1	=1	=1	=1
*xywh-4:555,1252,3467,651	*xywh-4:555,1252,3467,651	*	*xywh-4:646,691,3342,634	*	*
4D\ 4A	4r	pp	1r	.	.
!	!LO:TUP:b	!	!	!	!
4D\ 4A	12a/L	.	.	.	.
.	12g/	.	.	.	.
.	12f/J	.	.	.	.
4D\ 4A	8.a/L	.	.	.	.
.	[16a/Jk	.	.	.	.
4D\ 4A	4a\] 4ff	.	.	.	.
=2	=2	=2	=2	=2	=2
4D\ 4A	8.g/L	.	1r	.	.
.	[16g/Jk	.	.	.	.
4D\ 4A	4g\] 4ee	.	.	.	.
4D\ 4A	8.f/L	.	.	.	.
.	[16f/Jk	.	.	.	.
4D\ 4A	4f/] 4dd	.	.	.	.
=3	=3	=3	=3	=3	=3
4D\ 4G	8.e/L	.	1r	.	.
.	[16e/Jk	.	.	.	.
4D\ 4G	4e/] 4b-	.	.	.	.
4D\ 4G	8.c#X/L	.	.	.	.
.	[16c#/Jk	.	.	.	.
4D\ 4G	4c#/] 4a	.	.	.	.
=4	=4	=4	=4	=4	=4
4D\ 4G	8.A/L	.	1r	.	.
.	[16A/Jk	.	.	.	.
4D\ 4G	4A/] 4c#X 4e	.	.	.	.
4D\ 4F	8.A/L	.	.	.	.
.	[16A/Jk	.	.	.	.
4D\ 4F	4A/] 4d 4f	.	.	.	.
!!linebreak:original
=5	=5	=5	=5	=5	=5
*xywh-4:618,2215,3291,628	*xywh-4:618,2215,3291,628	*	*xywh-4:612,1870,3393,379	*	*
4D\ 4A	4r	.	1r	.	.
!	!LO:TUP:b	!	!	!	!
4D\ 4A	12a/L	.	.	.	.
.	12g/	.	.	.	.
.	12f/J	.	.	.	.
4D\ 4A	8.a/L	.	.	.	.
.	[16a/Jk	.	.	.	.
4D\ 4A	4a\] 4ff	.	.	.	.
=6	=6	=6	=6	=6	=6
4D\ 4A	8.g/L	.	1r	.	.
.	[16g/Jk	.	.	.	.
4D\ 4A	4g\] 4ee	.	.	.	.
4D\ 4A	8.f/L	.	.	.	.
.	[16f/Jk	.	.	.	.
4D\ 4A	4f/] 4dd	.	.	.	.
=7	=7	=7	=7	=7	=7
4D\ 4G	8.e/L	.	1r	.	.
.	[16e/Jk	.	.	.	.
4D\ 4G	4e/] 4b-	.	.	.	.
4D\ 4G	8.c#X/L	.	.	.	.
.	[16c#/Jk	.	.	.	.
4D\ 4G	4c#/] 4a	.	.	.	.
=8	=8	=8	=8	=8	=8
4D\ 4G	8.A/L	.	1r	.	.
.	[16A/Jk	.	.	.	.
4D\ 4G	4A/] 4c#X 4a	.	.	.	.
4D\ 4G	8.A/L	.	.	.	.
.	[16A/Jk	.	.	.	.
4D\ 4G	4A/] 4c# 4a	.	.	.	.
!!linebreak:original
=9	=9	=9	=9	=9	=9
*xywh-4:561,3144,3410,640	*xywh-4:561,3144,3410,640	*	*xywh-4:555,2816,3404,407	*	*
!	!	!	!	!	!LO:DY:a
4D\ 4F	4d/ 4f 4a	.	4a/	Nad	p
4D\ 4A	4d/ 4f 4a	.	4a/	Ta-	.
4D\ 4A	4d/ 4f 4a	.	4a/	-tra-	.
4D\ 4A	4d/ 4f 4a	.	4a/	-mi	.
=10	=10	=10	=10	=10	=10
!	!	!	!	!	!LO:DY:a
4D\ 4A	4d/ 4f 4a	<	4a/	cią-	<
4D\ 4A	4d/ 4f 4a	.	4ff\	-gną	.
4D\ 4A	4d/ 4f 4a	.	4ee\	chmu-	.
4D\ 4A	4d/ 4f 4a	.	4dd\	-ry,	.
=11	=11	=11	=11	=11	=11
4D\ 4G	4d/ 4e 4b-	.	4cc#X\	O-	.
4D\ 4G	4d/ 4e 4b-	.	4dd\	-rzeł	.
4D\ 4G	4d/ 4e 4b-	.	4.b-\	w sza-	.
4D\ 4G	4d/ 4e 4b-	.	.	.	.
.	.	[	8b-\	-rym	[
=12	=12	=12	=12	=12	=12
!	!	!	!	!	!LO:DY:a
4D\ 4G	4c#X/ 4e	>	4a/	bu-	>
4D\ 4G	4c#/ 4e	.	4b-\	-ja	.
4D\ 4G	4c#/ 4e	.	2e/	tle;	.
4D\ 4G	4c#/ 4e	]	.	.	]
!!linebreak:original
=13	=13	=13	=13	=13	=13
*xywh-4:595,4125,3382,742	*xywh-4:595,4125,3382,742	*	*xywh-4:623,3802,3285,396	*	*
!	!	!	!	!LO:MO:mod=W dali	!
4D\ 4F	4d/ 4f 4a	.	4a/	Wda-	.
4D\ 4A	4d/ 4f 4a	.	4a/	-li	.
4D\ 4A	4d/ 4f 4a	.	4a/	Ta-	.
4D\ 4A	4d/ 4f 4a	.	4a/	-trów	.
=14	=14	=14	=14	=14	=14
4C\ 4A	4d/ 4f 4a	.	4a/	szczyt	.
4BB-\ 4F	4d/ 4dd	.	4dd\	po-	.
4AA/ 4F	4d/ 4cc	.	4cc\	-nu-	.
4GG/ 4F	4d/ 4b-	.	4b-\	-ry,	.
=15	=15	=15	=15	=15	=15
!	!	!	!	!	!LO:DY:a
4AA/ 4F	4d/ 4a	<	4a/	Jak	<
4AA\ 4G	4d/ 4b-	.	4b-\	by	.
4AA\ 4A	4d/ 4e	.	4e/	w pu-	.
4AA\ 4B-	4d/ 4e	.	4e/	-chy	.
=16	=16	=16	=16	=16	=16
4AA/ 4E	4d/ 4e	.	2.e/	drzy-	.
4AA/ 4F	4d/ 4e	.	.	.	.
4AA\ 4G	4d/ 4e	.	.	.	.
4AA\ 4A	4c#X/ 4f	[	4f/	-mie	[
!!pagebreak:original
=17	=17	=17	=17	=17	=17
*xywh-5:239,1091,3294,602	*xywh-5:239,1091,3294,602	*	*xywh-5:262,710,3271,437	*	*
!	!	!	!	!	!LO:DY:a
4D\	4d/	.	[1d	w mgle._	>
!	!LO:TUP:b	!	!	!	!
4D\ 4A	12a/L	pp	.	.	.
.	12g/	.	.	.	.
.	12f/J	.	.	.	.
4D\ 4A	8.a/L	.	.	.	.
.	[16a/Jk	.	.	.	.
4D\ 4A	4a\] 4ff	.	.	.	.
=18	=18	=18	=18	=18	=18
4D\ 4A	8.g/L	.	4d/]	.	]
.	[16g/Jk	.	.	.	.
4D\ 4A	4g\] 4ee	.	4r	.	.
4D\ 4A	8.f/L	.	2r	.	.
.	[16f/Jk	.	.	.	.
4D\ 4A	4f/] 4dd	.	.	.	.
=19	=19	=19	=19	=19	=19
4D\ 4A	4d/ 4f 4a	.	4a/	Daj	.
4D\ 4A	4d/ 4f 4a	.	4a/	mi	.
4D\ 4A	4d/ 4f 4a	.	4a/	or-	.
4D\ 4A	4d/ 4f 4a	.	4a/	-le	.
!!linebreak:original
=20	=20	=20	=20	=20	=20
*xywh-5:273,2090,3265,670	*xywh-5:273,2090,3265,670	*	*xywh-5:239,1716,3311,454	*	*
!	!	!	!	!	!LO:DY:a
4D\ 4A	4d/ 4f 4a	<	4a/	na	<
4D\ 4A	4d/ 4f 4a	.	4ff\	chwi-	.
4D\ 4A	4d/ 4f 4a	.	4ee\	-le-	.
4D\ 4A	4d/ 4f 4a	.	4dd\	-czkę,	.
=21	=21	=21	=21	=21	=21
4D\ 4G	4d/ 4e 4b-	.	4cc#X\	Nad-	.
4D\ 4G	4d/ 4e 4b-	.	4dd\	-po-	.
4D\ 4G	4d/ 4e 4b-	.	4.b-\	-wie-	.
4D\ 4G	4d/ 4e 4b-	.	.	.	.
.	.	[[	8b-\	-trznych	[[
=22	=22	=22	=22	=22	=22
!	!	!	!	!	!LO:DY:a
4D\ 4G	4c#X/ 4e	>	4a/	wio-	>
4D\ 4G	4c#/ 4e	.	4b-\	-seł	.
4D\ 4G	4c#/ 4e	.	2e/	twych,	.
4D\ 4G	4c#/ 4e	]	.	.	]
=23	=23	=23	=23	=23	=23
4D\ 4F	4d/ 4f 4a	.	4a/	Niech	.
4D\ 4A	4d/ 4f 4a	.	4a/	po-	.
4C\ 4A	4d/ 4f 4a	.	4a/	-le-	.
4C\ 4A	4d/ 4f 4a	.	4a/	-cę	.
!!linebreak:original
=24	=24	=24	=24	=24	=24
*xywh-5:268,3107,3305,704	*xywh-5:268,3107,3305,704	*	*xywh-5:234,2761,3351,448	*	*
4C\ 4A	4d/ 4f 4a	.	4a/	tam,	.
4BB-\ 4F	4d/ 4dd	.	4dd\	nad	.
4AA/ 4F	4d/ 4cc	.	4cc\	rzecz-	.
4GG/ 4F	4d/ 4b-	.	4b-\	-kę,	.
=25	=25	=25	=25	=25	=25
4AA/ 4F	4d/ 4a	<	4a/	Tam	.
4AA/ 4G	4d/ 4b-	.	4b-\	w kra-	.
4AA\ 4A	4d/ 4e	.	4e/	-i-	.
4AA\ 4B-	4d/ 4e	.	4e/	-nę	.
=26	=26	=26	=26	=26	=26
4AA/ 4E	4d/ 4e	.	2.e/	my-	.
4AA/ 4F	4d/ 4e	.	.	.	.
4AA\ 4G	4d/ 4e	.	.	.	.
4AA\ 4A	4c#X/ 4f	.	4f/	-śli.	.
.	.	[	.	.	.
=27	=27	=27	=27	=27	=27
4D\	4d/	.	[1d	mych._	.
!	!LO:TUP:b	!	!	!	!
4D\ 4A	12a/L	pp	.	.	.
.	12g/	.	.	.	.
.	12f/J	.	.	.	.
4D\ 4A	8.a/L	.	.	.	.
.	[16a/Jk	.	.	.	.
4D\ 4A	4a\] 4ff	.	.	.	.
!!linebreak:original
=28	=28	=28	=28	=28	=28
*xywh-5:262,4164,3283,653	*xywh-5:262,4164,3283,653	*	*xywh-5:256,3789,3277,403	*	*
4D\ 4A	8.g/L	.	4d/]	.	.
.	[16g/Jk	.	.	.	.
4D\ 4A	4g\] 4ee	.	4r	.	.
4D\ 4A	8.f/L	.	2r	.	.
.	[16f/Jk	.	.	.	.
4D\ 4A	4f/] 4dd	.	.	.	.
=29	=29	=29	=29	=29	=29
4E\ 4G	8.e/L	<	1r	.	.
.	[16e/Jk	.	.	.	.
4E\ 4G	4e/] 4cc	.	.	.	.
4F\ 4A-X	8.d/L	.	.	.	.
.	[16d/Jk	.	.	.	.
4F\ 4A-	4d/] 4bn	[	.	.	.
=30	=30	=30	=30	=30	=30
4E\ 4G	8.c/L	>	1r	.	.
.	[16c/Jk	.	.	.	.
4E\ 4G	4c/] 4cc	.	.	.	.
4E\ 4B-	8.c/L	.	.	.	.
.	[16c/Jk	.	.	.	.
4E\ 4B-	4c/] 4g	]	.	.	.
!!pagebreak:original
=31	=31	=31	=31	=31	=31
*xywh-6:622,1019,3403,674	*xywh-6:622,1019,3403,674	*	*xywh-6:658,469,3373,594	*	*
!	!	!	!LO:TX:a:t=Più animato.:B	!	!
(2FF/	8r	.	2.a/	Tam,	.
.	(8A/L	.	.	.	.
.	8c/	.	.	.	.
.	8f/J	.	.	.	.
2AA/	8a/L	.	.	.	.
.	8f/	.	.	.	.
.	8c/	.	4a/	nad	.
.	8A/J)	.	.	.	.
=32	=32	=32	=32	=32	=32
2GG/	8r	.	2cc\	rze-	.
.	(8c/L	.	.	.	.
.	8e/	.	.	.	.
.	8g/J	.	.	.	.
2BB-/)	8cc/L	.	2cc\	-czką	.
.	8g/	.	.	.	.
.	8e/	.	.	.	.
.	8c/J)	.	.	.	.
=33	=33	=33	=33	=33	=33
(2AA/	8r	.	[1ff	cha-	.
.	(8f/L	.	.	.	.
.	8a/	.	.	.	.
.	8cc/J	.	.	.	.
2A\	8ff\L	.	.	.	.
.	8cc\	.	.	.	.
.	8a\	.	.	.	.
.	8f\J	.	.	.	.
=34	=34	=34	=34	=34	=34
4A\	8ff\L	.	4ff\]	.	.
.	8f\	.	.	.	.
4G\	8b-\	.	4ee\	-tka	.
.	8ee\J	.	.	.	.
4F\	8dd\L	.	4dd\	sto-	.
.	8a\	.	.	.	.
4E\	8g\	.	4cc\	-i,	.
.	8cc\J	.	.	.	.
!!linebreak:original
=35	=35	=35	=35	=35	=35
*xywh-6:678,2016,3325,727	*xywh-6:678,2016,3325,727	*	*xywh-6:702,1678,3306,399	*xywh-6:702,1678,3306,399	*
4D\	8bn/L	.	4bn\	A	.
.	8f/	.	.	.	.
!	!	!	!	!LO:MO:mod=w o-	!
4D-X\	8e/	.	4b-X\	wo-	.
.	8b-X/J	.	.	.	.
4C/	8a/L	.	4a/	-kien-	.
.	8f/	.	.	.	.
4BB-/)	8dn/	.	4dd\	-ku	.
.	8dd/J	.	.	.	.
=36	=36	=36	=36	=36	=36
(<2AA/	8cc/L	.	2.cc\	bły-	.
.	8a/	.	.	.	.
.	8f/	.	.	.	.
.	8c/J	.	.	.	.
2AA-X/	8f/L	.	.	.	.
.	8d/	.	.	.	.
.	8c/	.	4f/	-szczy	.
.	8d/J)	.	.	.	.
=37	=37	=37	=37	=37	=37
2GG/	(8g/L	.	[1g	kwiat;	.
.	8f/	.	.	.	.
.	8Bn/	.	.	.	.
.	8f/J	.	.	.	.
2D-X\	8g/L	.	.	.	.
.	8f/	.	.	.	.
.	8B/	.	.	.	.
.	8f/J	.	.	.	.
=38	=38	=38	=38	=38	=38
2C/	8g/L	.	4g/]	.	.
.	8e/	.	.	.	.
.	8B-X/	.	4r	.	.
.	8e/J	.	.	.	.
2CC/)	8g#X/L	.	2r	.	.
.	8e/	.	.	.	.
.	8B-/	.	.	.	.
.	8e/J)	.	.	.	.
!!linebreak:original
=39	=39	=39	=39	=39	=39
*xywh-6:649,3081,3296,647	*xywh-6:649,3081,3296,647	*	*xywh-6:721,2691,3277,428	*	*
(2FF/	8r	.	2.a/	A	.
.	(8A/L	.	.	.	.
.	8c/	.	.	.	.
.	8f/J	.	.	.	.
2AA/	8a/L	.	.	.	.
.	8f/	.	.	.	.
.	8c/	.	4a/	nad	.
.	8A/J	.	.	.	.
=40	=40	=40	=40	=40	=40
2GG/	8r	.	2cc\	kwia-	.
.	8c/L	.	.	.	.
.	8e/	.	.	.	.
.	8g/J	.	.	.	.
2BB-/)	8cc/L	.	2cc\	-tem,	.
.	8g/	.	.	.	.
.	8e/	.	.	.	.
.	8c/J)	.	.	.	.
=41	=41	=41	=41	=41	=41
(2AA/	8r	.	[1ee-X	o-	.
.	(8e-X/L	.	.	.	.
.	8f#X/	.	.	.	.
.	8cc/J	.	.	.	.
2C/	8ee-X/L	.	.	.	.
.	8cc/	.	.	.	.
.	8f#/	.	.	.	.
.	8e-/J)	.	.	.	.
=42	=42	=42	=42	=42	=42
2BB-/	8r	.	4ee-\]	.	.
.	(8e-X/L	.	.	.	.
.	8g/	.	4dd-X\	-czu	.
.	8dd-X/J	.	.	.	.
2D-X\)	8ee-X/L	.	4cc\	dwo-	.
.	8dd-/	.	.	.	.
.	8g/	.	4b-\	-je	.
.	8e-/J)	.	.	.	.
!!linebreak:original
=43	=43	=43	=43	=43	=43
*xywh-6:712,4080,3296,632	*xywh-6:712,4080,3296,632	*	*xywh-6:707,3700,3315,466	*	*
(2BBn/	8r	.	[1ff	A_	.
.	(8f/L	.	.	.	.
.	8g#X/	.	.	.	.
.	8dd/J	.	.	.	.
2Dn\	8ff/L	.	.	.	.
.	8dd/	.	.	.	.
.	8g#/	.	.	.	.
.	8f/J)	.	.	.	.
=44	=44	=44	=44	=44	=44
2C/	8r	.	4ff\]	.	.
.	(8f/L	.	.	.	.
.	8a/	.	4ee-X\	te	.
.	8ee-X/J	.	.	.	.
2E-X\)	8ff/L	.	4dd\	o-	.
.	8ee-/	.	.	.	.
.	8a/	.	4cc\	-czy,	.
.	8f/J)	.	.	.	.
=45	=45	=45	=45	=45	=45
(2C#X/	8r	.	2.gg\	to	.
.	(8g\L	.	.	.	.
.	8b-X\	.	.	.	.
.	8een\J	.	.	.	.
2En\	8gg\L	.	.	.	.
.	8ee\	.	.	.	.
.	8b-\	.	4g/	mój	.
.	8g\J	.	.	.	.
=46	=46	=46	=46	=46	=46
2E-X\	8b-/L	.	2g/	świat!	.
.	8g/	.	.	.	.
.	8B-/	.	.	.	.
.	8g/J	.	.	.	.
2D\	8b-/L	.	2r	.	.
.	8f/	.	.	.	.
.	8B-/	.	.	.	.
.	8f/J	.	.	.	.
=47	=47	=47	=47	=47	=47
*	*^	*	*	*	*
*	*	*^	*	*	*	*
*xywh-6:712,4080,3296,632	*xywh-6:712,4080,3296,632	*xywh-6:712,4080,3296,632	*xywh-6:712,4080,3296,632	*	*xywh-6:707,3700,3315,466	*xywh-6:707,3700,3315,466	*
[1C#X;)	8a/L	4ryy	4ryy	.	2r	.	.
.	8e/	.	.	.	.	.	.
.	8A/	[4A\	8ryy	.	.	.	.
.	[<8e/J	.	8e\	.	.	.	.
!	!	!	!	!	!LO:TX:a:t=ritard.:i	!	!LO:DY:a:rj
.	[<2A;/ 2e_ [2a)	2A\]	2ryy	.	4.a;/	to	pp
.	.	.	.	.	8e/	mój	.
*	*	*v	*v	*	*	*	*
*	*v	*v	*	*	*	*
!!pagebreak:original
=48	=48	=48	=48	=48	=48
*xywh-7:334,983,3358,640	*xywh-7:334,983,3358,640	*	*xywh-7:374,564,3251,453	*	*
!	!	!	!LO:TX:a:t=a tempo:i	!	!
4C#X/]	4A/] 4e] 4a]	.	4e/	świat!	.
*clefG2	*	*	*	*	*
4c#X/	4e/ 4a	pp	4r	.	.
4c#/	4e/ 4a	.	2r	.	.
4c#/	4e/ 4a	.	.	.	.
=49	=49	=49	=49	=49	=49
4d/	4r	.	1r	.	.
!	!LO:TUP:b	!	!	!	!
4d/	12a/L	.	.	.	.
.	12g/	.	.	.	.
.	12f/J	.	.	.	.
4d/	8.a/L	.	.	.	.
.	[16a/Jk	.	.	.	.
4d/	4a\] 4ff	.	.	.	.
=50	=50	=50	=50	=50	=50
4d/	8.g/L	.	2r	.	.
.	[16g/Jk	.	.	.	.
4d/	4g\] 4ee	.	.	.	.
4d/	8.f/L	.	4a/	Nie	.
.	[16f/Jk	.	.	.	.
4d/	4f/] 4dd	.	4a/	dał	.
=51	=51	=51	=51	=51	=51
4d/	8.r	.	2b-\	wio-	.
.	[16e/	.	.	.	.
4d/	4e/] 4b- 4ee	.	.	.	.
4d/	8.r	.	2b-\	-seł!	.
.	[16e/	.	.	.	.
4d/	4e/] 4b- 4ee	.	.	.	.
=52	=52	=52	=52	=52	=52
4c#X/	8.r	.	1r	.	.
.	[16e/	.	.	.	.
4c#/	4e/] 4b- 4ee	.	.	.	.
4c#/	8.r	.	.	.	.
.	[16e/	.	.	.	.
4c#/	4e/] 4b- 4ee	.	.	.	.
!!linebreak:original
=53	=53	=53	=53	=53	=53
*xywh-7:306,1929,3387,759	*xywh-7:306,1929,3387,759	*	*xywh-7:391,1601,3274,436	*	*
4d/	4r	.	1r	.	.
!	!LO:TUP:b	!	!	!	!
4d/	12a/L	.	.	.	.
.	12g/	.	.	.	.
.	12f/J	.	.	.	.
4d/	8.a/L	.	.	.	.
.	[16a/Jk	.	.	.	.
4d/	4a\] 4ff	.	.	.	.
=54	=54	=54	=54	=54	=54
4d/	8.g/L	.	2r	.	.
.	[16g/Jk	.	.	.	.
4d/	4g\] 4ee	.	.	.	.
!	!	!	!	!	!LO:DY:a
4d/	8.f/L	.	4a/	Nie	<
.	[16f/Jk	.	.	.	.
4d/	4f/] 4dd	.	4a/	dał	.
=55	=55	=55	=55	=55	=55
4d/	8.r	.	2ee\	wio-	.
.	[16e/	.	.	.	.
4d/	4e/] 4b- 4ee	.	.	.	.
!	!	!	!	!	!LO:DY:a
4d/	8.r	.	2ee\	-seł!	[ >
.	[16e/	.	.	.	]
4d/	4e/] 4b- 4ee	.	.	.	.
=56	=56	=56	=56	=56	=56
4c#X/	8.r	.	1r	.	.
.	[16e/	.	.	.	.
4c#/	4e/] 4b- 4ee	.	.	.	.
4c#/	8.r	.	.	.	.
.	[16e/	.	.	.	.
4c#/	4e/] 4b- 4ee	.	.	.	.
!!linebreak:original
=57	=57	=57	=57	=57	=57
*xywh-7:284,3000,3438,736	*xywh-7:284,3000,3438,736	*	*xywh-7:300,2620,3358,481	*	*
4d/	4f/ 4a	.	2r	.	.
4d/	4f/ 4a	.	.	.	.
4d/	4f/ 4a	.	[2a/	więc	.
4d/	4f/ 4a	.	.	.	.
=58	=58	=58	=58	=58	=58
4d/	4f/ 4a	.	4a/]	.	.
4d/	4f/ 4a	.	4ff\	pio-	.
4d/	4f/ 4a	.	4ee\	-sen-	.
4d/	4f/ 4a	.	4dd\	-ko	.
=59	=59	=59	=59	=59	=59
!	!	!	!	!	!LO:DY:a
4d/	4e/ 4g 4b-	.	4cc#X\	Ty	<
4d/	4e/ 4g 4b-	.	4dd\	bądź	.
4d/	4e/ 4g 4b-	.	4.b-\	po-	.
4d/	4e/ 4g 4b-	.	.	.	.
.	.	.	8b-\	-słem	.
=60	=60	=60	=60	=60	=60
4d/	4e/ 4g	.	4a/	mo-	.
4d/	4e/ 4g	.	4b-\	-ich	[
!	!	!	!	!	!LO:DY:a
4c#X/	4e/ 4a	.	2e/	czuć,	> ]]
4c#/	4e/ 4a	.	.	.	.
!!linebreak:original
=61	=61	=61	=61	=61	=61
*xywh-7:323,4074,3324,804	*xywh-7:323,4074,3324,804	*	*xywh-7:306,3651,3364,492	*	*
4cn/	4d/ 4f#X 4a	.	4a/	Leć	.
4c/	4d/ 4f# 4a	.	4a/	gdzie	.
4c/	4d/ 4f# 4a	.	4a/	cha-	.
4c/	4d/ 4f# 4a	.	4a/	-tka,	.
=62	=62	=62	=62	=62	=62
4c/	4d/ 4f#X 4a	.	4a/	kwat,	.
4B-/	4d/ 4dd	.	4dd\	o-	.
4A/	4d/ 4cc	.	4cc\	-kien-	.
4G/	4d/ 4b-	.	4b-\	-ko,	.
*clefF4	*	*	*	*	*
=63	=63	=63	=63	=63	=63
4F\	4d/ 4a	<	4a/	Rzew-	.
4G\	4d/ 4b-	.	4b-\	-nie	.
4A\	4d/ 4e	.	4e/	jéj	.
4B-\	4d/ 4e	.	4e/	tam	.
=64	=64	=64	=64	=64	=64
!	!	!	!	!	!LO:DY:a
4E\	4d/ 4e	.	2.e/	o	<
4F\	4d/ 4e	.	.	.	.
4G\	4d/ 4e	.	.	.	.
4A\	4c#X/ 4f	[[	4f/	mnie	[[
.	.	>	.	.	.
!!pagebreak:original
=65||	=65||	=65||	=65||	=65||	=65||
!!!key: D
*k[f#c#]	*k[f#c#]	*	*k[f#c#]	*	*
*xywh-8:587,946,3348,694	*xywh-8:587,946,3348,694	*	*xywh-8:655,580,3234,432	*	*
!	!	!	!	!	!LO:DY:a
4D/	4d/	.	[1d	nuć.	>
4C#/ 4D	8r	]	.	.	.
.	4c#/ 4d	.	.	.	.
4BB/ 4D	.	.	.	.	.
.	4B/ 4d	.	.	.	.
4AA/ 4D	.	.	.	.	.
.	[8A/ [8d	.	.	.	.
=66	=66	=66	=66	=66	=66
4GG/ 4D	8A/] 8d]	.	4d/]	.	]
.	4G/ 4d	.	.	.	.
4FF#/ 4D	.	.	4r	.	.
.	4F#/ 4d	.	.	.	.
4EE/ 4D	.	.	2r	.	.
.	4E/ 4d	.	.	.	.
4DD/	.	.	.	.	.
.	8D/ 8d	.	.	.	.
=67	=67	=67	=67	=67	=67
8AA/	8r	.	2.a/	Jak	.
8r	8A/	.	.	.	.
4G\ 4A	8r	.	.	.	.
.	4g/ 4a	.	.	.	.
4F#\ 4A	.	.	.	.	.
.	4f#/ 4a	.	.	.	.
4E\ 4A	.	.	4a/	cię	.
.	[8e/ [8a	.	.	.	.
=68	=68	=68	=68	=68	=68
4D\ 4A	8e/] 8a]	.	2a/	tkli-	.
.	4d/ 4a	.	.	.	.
4C#\ 4A	.	.	.	.	.
.	4c#/ 4a	.	.	.	.
4BB\ 4A	.	.	2a/	-wie	.
.	4B/ 4a	.	.	.	.
4AA/	.	.	.	.	.
.	8A/ 8a	.	.	.	.
=69	=69	=69	=69	=69	=69
8D\	8r	.	[1dd	w mo-	.
8r	8d/	.	.	.	.
4d\	8r	.	.	.	.
.	4dd\	.	.	.	.
4c#\ 4d	.	.	.	.	.
.	4cc#\ 4dd	.	.	.	.
4cn\ 4d	.	.	.	.	.
.	[<8ccn\ [>8dd	.	.	.	.
!!linebreak:original
=70	=70	=70	=70	=70	=70
*xywh-8:541,1850,3428,814	*xywh-8:541,1850,3428,814	*	*xywh-8:610,1554,3314,472	*	*
4B\ 4d	8ccnX\] 8dd]	.	4dd\]	.	.
.	4b\ 4dd	.	.	.	.
4A\ 4d	.	.	4cc#\	-jéj	.
.	4a\ 4dd	.	.	.	.
4G\ 4d	.	.	4b\	du-	.
.	4g\ 4dd	.	.	.	.
4F#\ 4d	.	.	4a/	-szy,	.
.	[8f#/ [8dd	.	.	.	.
=71	=71	=71	=71	=71	=71
4E\ 4d	8f#/] 8dd]	.	4g/	Jak	.
.	4e/ 4dd	.	.	.	.
4F#\ 4d	.	.	4f#/	cię	.
.	4f#/ 4dd	.	.	.	.
!	!	!	!	!LO:MO:mod=w ser-	!
4G\ 4d	.	.	4e/	wser-	.
.	4g\ 4dd	.	.	.	.
4E\ 4d	.	.	4b\	-cu	.
.	[8e/ [8dd	.	.	.	.
=72	=72	=72	=72	=72	=72
4A\ 4d	8e/] 8dd]	.	2.a/	czu-	.
.	4a\ 4dd	.	.	.	.
*clefG2	*	*	*	*	*
4B/ 4g	.	.	.	.	.
.	4b\ 4gg	.	.	.	.
4c#/ 4g	.	.	.	.	.
.	4cc#\ 4gg	.	.	.	.
4A/ 4g	.	.	4e#X/	-ję	.
.	((8a\ 8gg	.	.	.	.
=73	=73	=73	=73	=73	=73
8d/ 8f#	8dd\)) 8ff#	.	[1f#	mém;_	.
8r	8r	.	.	.	.
4cc#\ 4dd	8r	.	.	.	.
.	4ccc#\ 4ddd	.	.	.	.
4b\ 4dd	.	.	.	.	.
.	4bb\ 4ddd	.	.	.	.
4a\ 4dd	.	.	.	.	.
.	[8aa\ [8ddd	.	.	.	.
=74	=74	=74	=74	=74	=74
4g\ 4dd	8aa\] 8ddd]	.	4f#/]	.	.
.	4gg\ 4ddd	.	.	.	.
4f#/ 4dd	.	.	4r	.	.
.	4ff#\ 4ddd	.	.	.	.
4e/ 4dd	.	.	2r	.	.
.	4ee\ 4ddd	.	.	.	.
4d/	.	.	.	.	.
.	[8dd\ [8ddd	.	.	.	.
!!linebreak:original
=75	=75	=75	=75	=75	=75
*xywh-8:588,2982,3319,694	*xywh-8:588,2982,3319,694	*	*xywh-8:655,2642,3240,415	*	*
!	!	!	!LO:TX:a:t=con gran affetto:i	!	!
4a/	8dd\] 8ddd]	.	2.a/	Mo-	.
.	4aa\	.	.	.	.
4g/ 4a	.	.	.	.	.
.	4gg\ 4aa	.	.	.	.
4f#/ 4a	.	.	.	.	.
.	4ff#\ 4aa	.	.	.	.
4e/ 4a	.	.	4a/	-że	.
.	[8ee\ [8aa	.	.	.	.
=76	=76	=76	=76	=76	=76
4d/ 4a	8ee\] 8aa]	.	2a/	się	.
.	4dd\ 4aa	.	.	.	.
4c#/ 4a	.	.	.	.	.
.	4cc#\ 4aa	.	.	.	.
4B/ 4a	.	.	2a/	-jéj	.
.	4b\ 4aa	.	.	.	.
4A/	.	.	.	.	.
.	[8a\ [8aa	.	.	.	.
*clefF4	*	*	*	*	*
=77	=77	=77	=77	=77	=77
4d\	8a\] 8aa]	.	[1ff#	ser-	.
.	4dd\	.	.	.	.
4c#\ 4d	.	.	.	.	.
.	4cc#\ 4dd	.	.	.	.
4B\ 4d	.	.	.	.	.
.	4b\ 4dd	.	.	.	.
4A\ 4d	.	.	.	.	.
.	[8a\ [8dd	.	.	.	.
=78	=78	=78	=78	=78	=78
4G#X\ 4d	8a\] 8dd]	.	4ff#\]	.	.
.	4g#X\ 4dd	.	.	.	.
4Gn\ 4d	.	.	4ee\	-ce	.
.	4gn\ 4dd	.	.	.	.
4F#\ 4d	.	.	4dd\	wzru-	.
.	4f#/ 4dd	.	.	.	.
4E\ 4d	.	.	4cc#\	-szy,	.
.	[8e/ [8dd	.	.	.	.
=79	=79	=79	=79	=79	=79
4D\	8e/] 8dd]	.	4b\	Bła-	.
.	4d/ 4dd	.	.	.	.
4Cn/ 4D	.	.	4a/	-ga-	.
.	4cn/ 4d	.	.	.	.
4BB/ 4D	.	.	4g#X/	-ją-	.
.	4B/ 4d	.	.	.	.
4BB-X/ 4D	.	.	4gn/	-cem	.
.	[8B-X/ [8d	.	.	.	.
!!linebreak:original
=80	=80	=80	=80	=80	=80
*xywh-8:581,4048,3354,780	*xywh-8:581,4048,3354,780	*ywh-8:581,4048,3354,780	*xywh-8:553,3633,3348,466	*xywh-8:553,3633,3348,466	*
4AA/ 4D	8B-X/] 8d]	.	(4f#/	dzwię-	.
.	4A/ 4d	.	.	.	.
4GG#X/ 4D	.	.	4fn/	.	.
.	4G#X/ 4d	.	.	.	.
4GGn/ 4D	.	.	4.e/)	.	.
.	4Gn/ 4d	.	.	.	.
4AA/ 4D	.	.	.	.	.
.	8A/ [8d	.	8d/	-kiem	.
=81	=81	=81	=81	=81	=81
4DD/	4D/ 4d]	.	[1d	twém._	.
.	.	>	.	.	.
4DD/	4r	.	.	.	.
4DD/	2r	.	.	.	.
4DD/	.	]	.	.	.
=82	=82	=82	=82	=82	=82
!	!	!LO:DY:a=2	!	!	!
4DD/	1r	pp	4d/]	.	.
4DD/	.	.	4r	.	.
4DD/	.	.	2r	.	.
4DD/	.	.	.	.	.
=83	=83	=83	=83	=83	=83
*	*^	*	*	*	*
*xywh-8:581,4048,3354,780	*xywh-8:581,4048,3354,780	*xywh-8:581,4048,3354,780	*	*xywh-8:553,3633,3348,466	*	*
!	!	!	!	!	!	!LO:DY:a
4DD/	((2dd\	2ryy	.	2.dd\	O	p
4DD/	.	.	.	.	.	.
4DD/	2ddn\)	2cc#/	.	.	.	.
4DD/	.	.	.	4dd\	mi-	.
=84	=84	=84	=84	=84	=84	=84
4DD/	1gg	2b\	.	(2gg\	-ło-	.
4DD/	.	.	.	.	.	.
4DD/	.	2b-X\)	.	2b-X\)	-ści	.
4DD/	.	.	.	.	.	.
!!pagebreak:original
=85	=85	=85	=85	=85	=85	=85
*xywh-9:287,1035,3358,708	*xywh-9:287,1035,3358,708	*xywh-9:287,1035,3358,708	*	*xywh-9:309,701,3285,413	*xywh-9:309,701,3285,413	*
4DD/	(>(>2a/	2ryy	.	2.a/	méj	.
4DD/	.	.	.	.	.	.
4DD/	2a/)	2g\	.	.	.	.
4DD/	.	.	.	4a/	prze-	.
=86	=86	=86	=86	=86	=86	=86
*^	*	*	*	*	*	*
*xywh-9:287,1035,3358,708	*xywh-9:287,1035,3358,708	*xywh-9:287,1035,3358,708	*xywh-9:287,1035,3358,708	*	*xywh-9:309,701,3285,413	*xywh-9:309,701,3285,413	*
4DD/	2.ryy	1dd	2f#\	.	(2dd\	-ko-	.
4DD/	.	.	.	.	.	.	.
4DD/	.	.	2fn\)	.	2fn/)	-naj,	.
4DD/	[4DD\	.	.	.	.	.	.
=87	=87	=87	=87	=87	=87	=87	=87
!	!	!	!	!	!	!	!LO:DY:a
4EE/	1DD_	(>2e/	2ryy	<	2.e/	o	<
4EE/	.	.	.	.	.	.	.
4EE/	.	2e/)	2d\	.	.	.	.
(4EE/	.	.	.	.	4e/	tę-	.
=88	=88	=88	=88	=88	=88	=88	=88
4FF#/)	4DD\]	(2.a/	2cn\ 2e-X	.	2.a/	-skno-	.
(4FF#/	2.ryy	.	.	.	.	.	.
4GG/)	.	.	2B\ 2d	.	.	.	.
(4GG/	.	4g/	.	.	4g/	-cie	.
.	.	.	.	[	.	.	[
*v	*v	*	*	*	*	*	*
*	*v	*v	*	*	*	*
=89	=89	=89	=89	=89	=89
!	!	!	!	!	!LO:DY:a
4AA/)	2A/ 2d 2f#	>	2f#/	śpie-	>
(4AA/	.	.	.	.	.
4AA#X/)	2G/ 2c# 2e	.	2e/	-waj	.
(4AA#/	.	.	.	.	.
=90	=90	=90	=90	=90	=90
4BB/)	2.F#/) 2.d	]	2.d/	méj,	]
(4BB/	.	.	.	.	.
4AAn/)	.	.	.	.	.
(4AA/	4r	.	4r	.	.
!!linebreak:original
=91	=91	=91	=91	=91	=91
*xywh-9:300,2061,3347,685	*xywh-9:300,2061,3347,685	*	*xywh-9:225,1698,3449,436	*	*
4GG#X/)	8.r	.	2.b\	Wróć	.
.	[16B/	.	.	.	.
4GG#/	4B/] 4d 4e	.	.	.	.
4GG#/	8.r	.	.	.	.
.	[16d/	.	.	.	.
(4GG#/	4d/] 4e 4b	.	4b\	z na-	.
=92	=92	=92	=92	=92	=92
4GGn/)	8.r	.	2ee\	-dzie-	.
.	[16e/	.	.	.	.
4GG/	4e/] 4b-X 4ee	.	.	.	.
4GG/	8.r	.	2ee\	-ją,	.
.	[16e/	.	.	.	.
(4GG/	4e/] 4b- 4ee	.	.	.	.
=93	=93	=93	=93	=93	=93
4FF#/)	8.r	.	2.a/	lub	.
.	[16A/	.	.	.	.
4FF#/	4A/] 4c# 4e	.	.	.	.
4FF#/	8.r	.	.	.	.
.	[16c#/	.	.	.	.
(4FF#/	4c#/] 4e 4a	.	4a/	też	.
=94	=94	=94	=94	=94	=94
4BB/)	8.r	.	2dd\	sko-	.
.	[16d/	.	.	.	.
(4BB/	4d/] 4f# 4a 4dd	.	.	.	.
4BB-X/)	8.r	.	2dd\	-naj,	.
.	[16d/	.	.	.	.
(4BB-/	4d/] 4g 4dd	.	.	.	.
=95	=95	=95	=95	=95	=95
!	!	!	!	!	!LO:DY:a
4AA/)	8.r	.	2.f#/	A-	<
.	[16A/	.	.	.	.
(4AA/	4A/] 4d 4f#	<	.	.	.
4GG#X/)	8.r	.	.	.	.
.	[16B/	.	.	.	.
(4GG#/	4B/] 4d 4f#	.	4f#/	-le	.
!!linebreak:original
=96	=96	=96	=96	=96	=96
*xywh-9:265,3090,3347,696	*xywh-9:265,3090,3347,696	*	*xywh-9:332,2706,3319,458	*	*
4GGn/)	8.r	.	2b\	sko-	.
.	[16c#/	.	.	.	.
(4GG/	4c#/] 4e 4b	.	.	.	.
4FF#/)	8.r	.	2a/	-naj.	.
.	[16cn/	.	.	.	.
(4FF#/	4c/] 4d#X 4a	.	.	.	.
=97	=97	=97	=97	=97	=97
4FFn/)	8.r	.	2g#X/	U	.
.	[16B/	.	.	.	.
(4FF/	4B/] 4dn 4g#X	.	.	.	.
4EE/)	8.r	.	2gn/	nóg	.
.	[16B-X/	.	.	.	.
(4EE/	4B-/] 4d 4gn	[[	.	.	[[
=98	=98	=98	=98	=98	=98
4AA/)	8.r	>	2.f#/	sko-	.
.	[16A/	.	.	.	.
4AA/	4A/] 4c# 4f#	.	.	.	.
4AA/	8.r	.	.	.	.
.	[16G/	.	.	.	.
(4AA/	4G/] 4c# 4e	]	4e/	-naj	.
=99	=99	=99	=99	=99	=99
4DD/)	8F#/ 8d^>	.	[1d	jéj._	.
.	8r	.	.	.	.
!	!LO:TUP:b	!	!	!	!
4DD/ 4AA	12f#/L	pp	.	.	.
.	12e/	.	.	.	.
.	12d/J	.	.	.	.
4DD/ 4AA	8.f#/L	.	.	.	.
.	[16f#/Jk	.	.	.	.
4DD/ 4AA	4f#/] 4dd	.	.	.	.
!!linebreak:original
=100	=100	=100	=100	=100	=100
*xywh-9:298,4060,3375,753	*xywh-9:298,4060,3375,753	*	*xywh-9:298,3782,3358,424	*	*
4DD/ 4AA	8.g/L	.	4d/]	.	.
.	[16g/Jk	.	.	.	.
4DD/ 4AA	4g\] 4dd 4ee	.	4r	.	.
4DD/ 4AA	8.g/L	.	2r	.	.
.	[16g/Jk	.	.	.	.
4DD/ 4AA	4g\] 4cc# 4ee#X	.	.	.	.
=101	=101	=101	=101	=101	=101
4DD/ 4AA	4f#\ 4dd 4ff#	.	1r	.	.
!	!LO:TUP:a	!	!	!	!
4DD/ 4AA	12ff#\L	.	.	.	.
.	12ee\	.	.	.	.
.	12dd\J	.	.	.	.
4DD/ 4AA	8.ff#\L	.	.	.	.
.	[<16ff#\Jk	.	.	.	.
4DD/ 4AA	4ff#\] 4ddd	.	.	.	.
=102	=102	=102	=102	=102	=102
!	!	!LO:HP:t=morendo:ext=ud	!	!	!
4DD/ 4AA	8.gg\L	>	1r	.	.
.	[<16gg\Jk	.	.	.	.
4DD/ 4AA	4gg\] 4ddd 4eee	.	.	.	.
4DD/ 4AA	8.gg\L	.	.	.	.
.	[<16gg\Jk	.	.	.	.
4DD/ 4AA	4gg\] 4ccc# 4eee#X	.	.	.	.
=103	=103	=103	=103	=103	=103
4DD/ 4AA	8.ff#\L	.	1r	.	.
.	[<16ff#\Jk	.	.	.	.
4DD/ 4AA	2.ff#\_ [2.ddd [2.fff#	.	.	.	.
4DD/ 4AA	.	.	.	.	.
4DD/ 4AA	.	]]	.	.	.
=104	=104	=104	=104	=104	=104
4DD/ 4AA	8.ff#\L] 8.ddd] 8.fff#]	ppp	1r	.	.
.	[<16ff#\Jk	.	.	.	.
2.DD/ 2.AA	2.ff#\] 2.ddd 2.fff#	.	.	.	.
==	==	==	==	==	==
*-	*-	*-	*-	*-	*-
!!!system-decoration: s1{(s2,s3)}
!!!RDF**kern: > = above
!!!RDF**kern: < = below
!!!ENC: Filip Voros
!!!END: 2022-03-12
!!!ENC: Krzysztof Stępień
!!!END: 2022-03-17
!!!ENC-iiif: Marta Opryszak
!!!END-iiif: 2022-08-22
!!!YEC: Copyright 2022 Narodowy Instytut Fryderyka Chopina (https://polishscores.org)
!!!YEM: License CC-BY-4.0 (https://creativecommons.org/licenses/by/4.0)
